X:8288
T:Polka fr Finland
C:anon.
O:Finland
S:Alistair Cochrane / Christina Eketorp
R:Polka
Z:Transcribed by Richard Robinson
F:http://abc.musicaviva.com/tunes/finland/polka-finland.abc
%Posted March 6th 2002 at abcusers by Richard Robinson in response to Jack Campin's request for information about "The Hoy Song".
%%RR_OriginalCollection: 
M:4/4
K:G
d2dd d2dd| d2cd e2d2| B2BB B2BB| B2AB c2B2|\
A2DD F2D2| A2DD F2D2| A2A2 B3A | A2G2 G4 :|
|:D2DD B,2D2| G6 A2 | B2BB A2B2 | czz2B4 |\
A2DD F2D2| A2DD F2D2| A2A2 B3A | A2G2G4 :|
W:
W:
W:  From Musica Viva - http://www.musicaviva.com
W:  the Internet center for free sheet music downloads.
